X:85
M:4/4
L:1/8
Q:200
K:G
E2e4 dc|d2B2 A2>G2|1 G8 :|2 G6ef||
gfed g3B|A2 g4 A2|G3A B2F2|E2 e4 f2|gfed
g3B|A2A2 c3d|e2B2 A3G|G8||

